Papirus-Dark/24x24/actions/taxes-finances.svg

<?xml version="1.0" encoding="UTF-8" standalone="no"?>
<!--Created with Inkscape (http://www.inkscape.org/)-->
<svg xmlns:dc="http://purl.org/dc/elements/1.1/" xmlns:cc="http://creativecommons.org/ns#" xmlns:rdf="http://www.w3.org/1999/02/22-rdf-syntax-ns#" xmlns:svg="http://www.w3.org/2000/svg" xmlns="http://www.w3.org/2000/svg" xmlns:sodipodi="http://sodipodi.sourceforge.net/DTD/sodipodi-0.dtd" xmlns:inkscape="http://www.inkscape.org/namespaces/inkscape" width="24" height="24" id="svg3049" version="1.1" inkscape:version="0.91 r13725" sodipodi:docname="taxes-finances.svg" inkscape:export-filename="/home/uri/.kde/share/icons/NITRUX-KDE/16x16/actions/view-right-new.png" inkscape:export-xdpi="30" inkscape:export-ydpi="30">
    <defs id="defs3051">
        <style type="text/css" id="current-color-scheme">
            .ColorScheme-Text { color:#4d4d4d; } .ColorScheme-Background { color:#eff0f1; } .ColorScheme-Highlight { color:#3daee9; } .ColorScheme-ViewText { color:#31363b; } .ColorScheme-ViewBackground { color:#fcfcfc; } .ColorScheme-ViewHover { color:#93cee9; } .ColorScheme-ViewFocus{ color:#3daee9; } .ColorScheme-ButtonText { color:#31363b; } .ColorScheme-ButtonBackground { color:#eff0f1; } .ColorScheme-ButtonHover { color:#93cee9; } .ColorScheme-ButtonFocus{ color:#3daee9; }
        </style>
        <style id="current-color-scheme-7" type="text/css">
            .ColorScheme-Text { color:#4d4d4d; } .ColorScheme-Background { color:#eff0f1; } .ColorScheme-Highlight { color:#3daee9; } .ColorScheme-ViewText { color:#31363b; } .ColorScheme-ViewBackground { color:#fcfcfc; } .ColorScheme-ViewHover { color:#93cee9; } .ColorScheme-ViewFocus{ color:#3daee9; } .ColorScheme-ButtonText { color:#31363b; } .ColorScheme-ButtonBackground { color:#eff0f1; } .ColorScheme-ButtonHover { color:#93cee9; } .ColorScheme-ButtonFocus{ color:#3daee9; }
        </style>
    </defs>
    <sodipodi:namedview id="base" pagecolor="#ffffff" bordercolor="#666666" borderopacity="1.0" inkscape:pageopacity="0.0" inkscape:pageshadow="2" inkscape:zoom="23.94" inkscape:cx="3.890876" inkscape:cy="8.6902664" inkscape:document-units="px" inkscape:current-layer="layer1" showgrid="false" fit-margin-top="0" fit-margin-left="0" fit-margin-right="0" fit-margin-bottom="0" inkscape:window-width="1600" inkscape:window-height="847" inkscape:window-x="0" inkscape:window-y="30" inkscape:window-maximized="1" inkscape:showpageshadow="false" borderlayer="true" inkscape:object-nodes="true" showguides="false">
        <sodipodi:guide position="2.0000044,20.00003" orientation="18,0" id="guide4067"/>
        <sodipodi:guide position="2.0000044,2.0000296" orientation="0,18" id="guide4069"/>
        <sodipodi:guide position="20.000004,2.0000296" orientation="-18,0" id="guide4071"/>
        <sodipodi:guide position="20.000004,20.00003" orientation="0,-18" id="guide4073"/>
        <sodipodi:guide position="3.0000044,19.00003" orientation="16,0" id="guide4077"/>
        <sodipodi:guide position="3.0000044,3.0000296" orientation="0,16" id="guide4079"/>
        <sodipodi:guide position="19.000004,3.0000296" orientation="-16,0" id="guide4081"/>
        <sodipodi:guide position="19.000004,19.00003" orientation="0,-16" id="guide4083"/>
        <inkscape:grid type="xygrid" id="grid4085"/>
        <sodipodi:guide position="11.000004,18.999969" orientation="0,-6" id="guide4175"/>
        <sodipodi:guide position="9.9999739,18.999969" orientation="0,-4.9999695" id="guide4201"/>
    </sodipodi:namedview>
    <metadata id="metadata3054">
        <rdf:RDF>
            <cc:Work rdf:about="">
                <dc:format>
                    image/svg+xml
                </dc:format>
                <dc:type rdf:resource="http://purl.org/dc/dcmitype/StillImage"/>
                <dc:title/>
            </cc:Work>
        </rdf:RDF>
    </metadata>
    <g inkscape:label="Capa 1" inkscape:groupmode="layer" id="layer1" transform="translate(-421.71429,-523.79074)">
        <g transform="translate(421.71429,-505.57146)" id="layer1-5" inkscape:label="Capa 1" style="opacity:0.72;fill:#ffffff;fill-opacity:1">
            <path style="font-style:normal;font-variant:normal;font-weight:normal;font-stretch:normal;font-size:13.49886227px;line-height:125%;font-family:Oxygen;-inkscape-font-specification:Oxygen;letter-spacing:0px;word-spacing:0px;fill:#ffffff;fill-opacity:1;stroke:none" d="M 6,0 6,1.1308594 C 5.0228267,1.272742 4.1906877,1.5299378 3.5371094,1.9316406 2.5265626,2.5465406 2.0214834,3.4897188 2.0214844,4.7617188 2.0169288,6.9570109 3.5789587,7.6803901 6,8.3457031 L 6,13.335938 C 4.8272813,13.236927 3.7551089,13.016504 2.6230469,12.533203 L 2,13.888672 c 0.5645099,0.3013 1.3272997,0.562156 2.2890625,0.785156 C 4.833341,14.796143 5.4002819,14.874405 6,14.927734 L 6,16 l 1,0 1,0 1,0 0,-1.119141 c 1.996749,-0.284852 3.979968,-1.202256 3.958984,-3.6875 C 12.889007,9.3642664 11.755864,8.6858489 9,7.7167969 l 0,-4.953125 c 0.903263,0.1207438 2.002058,0.3722771 3.224609,0.9824219 L 13,2.203125 C 12.449416,1.907625 11.16891,1.4367187 10.353516,1.2617188 9.9200006,1.1691054 9.466997,1.1061138 9,1.0625 L 9,0 8,0 7,0 6,0 Z M 6,2.7597656 6,6.7558594 C 4.7730055,6.3214857 3.6429588,5.6646591 3.6757812,4.5664062 3.6162325,3.525104 4.6802316,2.9756239 6,2.7597656 Z m 3,6.4511719 c 1.281472,0.448538 2.319699,1.0353485 2.296875,2.0644535 C 11.257992,12.671085 10.165263,13.158285 9,13.324219 L 9,9.2109375 Z" transform="translate(4,1033.3622)" id="path3775" inkscape:connector-curvature="0"/>
        </g>
    </g>
</svg>

<?xml version="1.0" encoding="UTF-8" standalone="no"?>
<!--Created with Inkscape (http://www.inkscape.org/)-->
<svg id="svg3049" xmlns:rdf="http://www.w3.org/1999/02/22-rdf-syntax-ns#" xmlns="http://www.w3.org/2000/svg" height="24" width="24" version="1.1" xmlns:cc="http://creativecommons.org/ns#" xmlns:dc="http://purl.org/dc/elements/1.1/">
 <defs id="defs3051">
 </defs>
 <metadata id="metadata3054">
  <rdf:RDF>
   <cc:Work rdf:about="">
    <dc:format>image/svg+xml</dc:format>
    <dc:type rdf:resource="http://purl.org/dc/dcmitype/StillImage"/>
    <dc:title/>
   </cc:Work>
  </rdf:RDF>
 </metadata>
 <g id="layer1" transform="translate(-421.71 -523.79)">
  <g id="layer1-5" opacity="1" fill="#d3dae3" transform="translate(421.71 -505.57)">
   <path id="path3775" transform="translate(4 1033.4)" d="m6 0v1.1309c-0.9772 0.1418-1.8093 0.399-2.4629 0.8007-1.0105 0.6149-1.5156 1.5581-1.5156 2.8301-0.0046 2.1953 1.5575 2.9187 3.9785 3.584v4.9903c-1.1727-0.099-2.2449-0.319-3.377-0.803l-0.623 1.356c0.56451 0.3013 1.3273 0.56216 2.2891 0.78516 0.5442 0.122 1.1112 0.2 1.7109 0.254v1.072h3v-1.1191c1.9967-0.28485 3.98-1.2023 3.959-3.6875-0.07-1.8297-1.203-2.5082-3.959-3.4772v-4.9531c0.90326 0.12074 2.0021 0.37228 3.2246 0.98242l0.775-1.543c-0.551-0.2955-1.831-0.7664-2.646-0.9414-0.434-0.0926-0.887-0.1556-1.354-0.1992v-1.0625h-3zm0 2.7598v3.9961c-1.227-0.4344-2.357-1.0912-2.3242-2.1895-0.0596-1.0413 1.0044-1.5908 2.3242-1.8066zm3 6.4512c1.2815 0.44854 2.3197 1.0353 2.2969 2.0645-0.039 1.395-1.132 1.882-2.297 2.048v-4.1131z"/>
  </g>
 </g>
</svg>
